packages/core/src/svgs/tokens/mono/MOVR.svg

<svg width="24" height="24" viewBox="0 0 24 24" fill="none" xmlns="http://www.w3.org/2000/svg">
<path d="M20.1763 11.2334C20.3183 10.0679 20.2096 8.8857 19.8574 7.76571C19.5051 6.64573 18.9176 5.61399 18.1341 4.73967C17.3505 3.86533 16.3892 3.16861 15.3143 2.69621C14.2395 2.2238 13.0761 1.98662 11.9021 2.00058C10.7281 2.01454 9.57073 2.27932 8.50749 2.77715C7.44422 3.27499 6.49965 3.99438 5.73713 4.88709C4.97461 5.77981 4.41174 6.82522 4.08627 7.95326C3.76078 9.08132 3.68023 10.2659 3.84997 11.4275C5.05795 10.3025 6.64128 9.66709 8.29189 9.64499C9.98092 9.67464 11.6199 10.2231 12.9867 11.2157C14.1461 12.0903 15.5877 12.5052 17.0345 12.3807C18.4759 12.21 19.5644 11.6512 20.1704 11.2275L20.1763 11.2334Z" fill="white"/>
<path d="M5.52637 14.3516C5.52637 14.0752 5.79112 13.7634 6.1147 13.7634C6.43829 13.7634 6.70303 14.0752 6.70303 14.3516V17.2816C6.70303 17.558 6.43829 17.8817 6.1147 17.8817C5.79112 17.8817 5.52637 17.558 5.52637 17.2816V14.3516ZM10.8214 13.7634C10.8214 13.4927 11.0861 13.175 11.4098 13.175C11.7333 13.175 11.998 13.4927 11.998 13.7634V16.705C11.998 16.9757 11.7333 17.2934 11.4098 17.2934C11.0861 17.2934 10.8214 16.9757 10.8214 16.705V13.7634ZM12.5864 14.94C12.5864 14.687 12.8512 14.3516 13.1747 14.3516C13.4983 14.3516 13.763 14.687 13.763 14.94V15.5284C13.763 15.7814 13.4983 16.1166 13.1747 16.1166C12.8512 16.1166 12.5864 15.7814 12.5864 15.5284V14.94ZM17.8813 15.5284C17.8813 15.2283 18.1461 14.94 18.4697 14.94C18.7932 14.94 19.058 15.2283 19.058 15.5284V17.2934C19.058 17.5935 18.7932 17.8817 18.4697 17.8817C18.1461 17.8817 17.8813 17.5935 17.8813 17.2934V15.5284ZM7.29136 13.7634C7.29136 13.4986 7.55611 13.175 7.8797 13.175C8.20328 13.175 8.46803 13.4986 8.46803 13.7634V17.9111C8.46803 18.1758 8.20328 18.47 7.8797 18.47C7.55611 18.47 7.29136 18.1758 7.29136 17.9111V13.7634ZM14.3513 15.5284C14.3513 15.2342 14.6162 14.94 14.9397 14.94C15.2633 14.94 15.5281 15.2342 15.5281 15.5284V20.235C15.5281 20.5291 15.2633 20.8233 14.9397 20.8233C14.6162 20.8233 14.3513 20.5291 14.3513 20.235V15.5284ZM16.1163 16.1166C16.1163 15.8461 16.3811 15.5284 16.7047 15.5284C17.0283 15.5284 17.2931 15.8461 17.2931 16.1166V19.6467C17.2931 19.9173 17.0283 20.235 16.7047 20.235C16.3811 20.235 16.1163 19.9173 16.1163 19.6467V16.1166ZM9.05637 13.175C9.05637 12.8986 9.32108 12.5867 9.64464 12.5867C9.96834 12.5867 10.233 12.8986 10.233 13.175V21.4117C10.233 21.6882 9.96834 22.0001 9.64464 22.0001C9.32108 22.0001 9.05637 21.6882 9.05637 21.4117V13.175Z" fill="white"/>
<path d="M8.85638 11.8804C8.08915 11.8358 7.32074 11.9451 6.59631 12.2016C5.8719 12.4583 5.20609 12.8571 4.63804 13.3748C4.53057 13.4647 4.39214 13.5089 4.25245 13.498C4.11274 13.487 3.98293 13.4216 3.89086 13.3159C3.8461 13.2646 3.81207 13.2047 3.79077 13.1399C3.76946 13.0751 3.76131 13.0068 3.7668 12.9388C3.77228 12.8709 3.79127 12.8047 3.82268 12.7442C3.85409 12.6836 3.89727 12.6301 3.94969 12.5864C4.9965 11.6396 6.31113 11.0407 7.71249 10.8721C9.11386 10.7035 10.533 10.9736 11.7746 11.6451C12.1513 11.8594 12.5076 12.1075 12.8394 12.3864L13.1336 12.6041C13.8278 13.0747 14.981 13.6042 16.3694 13.616C17.6991 13.6278 18.8581 12.8747 19.3876 12.4865C19.6229 12.3099 19.9523 12.357 20.1289 12.5864C20.3054 12.816 20.2583 13.1395 20.0229 13.3159C19.4699 13.7278 18.0638 14.6692 16.3576 14.6574C14.7102 14.6397 13.3454 14.0103 12.5334 13.4631L12.1393 13.1689L11.9628 13.0276C11.0701 12.3338 9.98556 11.9313 8.85638 11.8745V11.8804Z" fill="white"/>
</svg>

<svg xmlns="http://www.w3.org/2000/svg" width="24" height="24" fill="none" viewBox="0 0 24 24">
    <path fill="#fff" d="M20.176 11.233a8.238 8.238 0 1 0-16.326.194 6.65 6.65 0 0 1 4.442-1.782 8.24 8.24 0 0 1 4.695 1.57 5.88 5.88 0 0 0 4.048 1.166c1.44-.171 2.53-.73 3.135-1.154zm-14.65 3.119c0-.277.265-.589.589-.589s.588.312.588.589v2.93c0 .276-.265.6-.588.6-.324 0-.589-.324-.589-.6zm5.295-.589c0-.27.265-.588.589-.588s.588.318.588.588v2.942c0 .27-.265.588-.588.588-.324 0-.589-.317-.589-.588zm1.765 1.177c0-.253.265-.588.589-.588s.588.335.588.588v.588c0 .253-.265.589-.588.589-.324 0-.589-.336-.589-.589zm5.295.588c0-.3.265-.588.589-.588s.588.288.588.588v1.765c0 .3-.265.589-.588.589a.606.606 0 0 1-.589-.589zm-10.59-1.765c0-.264.265-.588.589-.588s.588.324.588.588v4.148c0 .265-.265.559-.588.559-.324 0-.589-.294-.589-.559zm7.06 1.765a.61.61 0 0 1 .589-.588.61.61 0 0 1 .588.588v4.707a.61.61 0 0 1-.588.588.61.61 0 0 1-.589-.588zm1.765.589c0-.27.265-.589.589-.589s.588.318.588.589v3.53c0 .27-.265.588-.588.588-.324 0-.589-.318-.589-.588zm-7.06-2.942c0-.276.265-.588.589-.588s.588.312.588.588v8.237c0 .276-.265.588-.588.588-.324 0-.589-.312-.589-.588z"/>
    <path fill="#fff" d="M8.856 11.88a5.77 5.77 0 0 0-4.218 1.495.536.536 0 0 1-.747-.06.51.51 0 0 1 .059-.729 6.825 6.825 0 0 1 7.825-.94q.566.32 1.064.74l.295.218c.694.47 1.847 1 3.235 1.012 1.33.012 2.49-.741 3.019-1.13a.53.53 0 0 1 .74.1c.177.23.13.553-.105.73-.553.412-1.96 1.353-3.665 1.341-1.648-.017-3.013-.647-3.825-1.194l-.394-.294-.176-.141a5.5 5.5 0 0 0-3.107-1.154z"/>
</svg>
